X:208
T: NACHT UND STILL ISTS UM MICH HER
N: B0246
O: Europa, Mitteleuropa, Deutschland
R: Tageszeiten - Lied, Abend
M: 3/4
L: 1/4
K: G
 | G2G | B2B | AGA | G2z |
B2B | d2d | cBc | B2z |
A2A | c2c | ABc | d3 |
cBA | G2G | FEF | G2z

@@@ Tune index: 2011
